X: 229
T: Smith's Reel [1]
B: canberra pickers and fiddlers
B: tunes
M:4/4
L:1/8
R: reel
Q: 1/4=100
K:D
V:1 
fg|afbf afde|fafd edBc|dedB ABde|fafd e2fg|
afbf afde|fafd edBc|dedB ABde|fdec d2||
[F2A2]-|[A2A2][A2A2][A2A2]d2|BABc BA[F2A2]|+slide+[A2A2][AA]>B A-Bd2|fedf edB>A|
+slide+[A6A6]d2|BABc BA [F2A2]|[A3A3]B A2(=f^f-|f)dec d2:|
% abcbook-tune_id 63ae8f1c02a027c81fc758df
% abcbook-tune_composer_id 
% abcbook-link-0 https://www.youtube.com/watch?v=G7bdW-VZZ3I
% abcbook-boost 0
% abcbook-difficulty 0
% abcbook-tags canberra pickers and fiddlers,old time tunes,steve ryan,© free
% abcbook-tablature 
% abcbook-transpose 
% abcbook-tuning ADAE
% abcbook-lastupdated 1732672363029
% abcbook-src-url https://tunebook.net/scrape/tunes.abc
% abcbook-soundfonts 
% abcbook-repeats 1


